public/themes/EC/images/ico-heart-b.svg

<?xml version="1.0" encoding="UTF-8"?>
<svg width="25px" height="23px" viewBox="0 0 25 23" version="1.1" xmlns="http://www.w3.org/2000/svg" xmlns:xlink="http://www.w3.org/1999/xlink">
    <!-- Generator: Sketch 61 (89581) - https://sketch.com -->
    <title>Favourite</title>
    <desc>Created with Sketch.</desc>
    <g id="Symbols" stroke="none" stroke-width="1" fill="none" fill-rule="evenodd">
        <g id="SidebarIcons" transform="translate(-3.000000, -260.000000)" fill="#B9B9C0">
            <g id="3J">
                <g transform="translate(3.000000, 260.000000)">
                    <path d="M19.0908537,13.8726316 C17.0871951,16.1242105 14.145122,19.2897368 12.8469512,20.6757895 C11.5176829,19.2897368 8.48597561,16.1242105 6.42256098,13.8665789 C3.45914634,10.6284211 2.43414634,9.39368421 2.43414634,7.20868421 C2.43414634,5.18105263 4.12682927,2.25157895 7.18719512,2.25157895 C11.2414634,2.25763158 11.925,5.72578947 11.9542683,5.88921053 C11.9560976,5.89526316 11.9603659,5.90736842 11.9621951,5.91342105 C11.9689024,5.94368421 11.9786585,5.97394737 11.9884146,6.00421053 C11.9969512,6.03447368 12.004878,6.05868421 12.0164634,6.08894737 C12.0280488,6.11315789 12.0426829,6.13736842 12.0573171,6.16763158 C12.0713415,6.19184211 12.0841463,6.21605263 12.1,6.24026316 C12.1189024,6.26447368 12.1402439,6.28868421 12.1615854,6.31894737 C12.177439,6.33710526 12.1914634,6.35526316 12.2079268,6.36736842 C12.2359756,6.39763158 12.2664634,6.42184211 12.297561,6.44605263 C12.3115854,6.45815789 12.3243902,6.47026316 12.3390244,6.47631579 C12.3737805,6.50052632 12.4109756,6.51868421 12.45,6.54289474 C12.4640244,6.54894737 12.477439,6.555 12.4926829,6.56105263 C12.5292683,6.57921053 12.5682927,6.59131579 12.6079268,6.60342105 C12.627439,6.60947368 12.6469512,6.60947368 12.6664634,6.61552632 C12.6804878,6.62157895 12.6932927,6.62763158 12.7073171,6.62763158 C12.7317073,6.63368421 12.7554878,6.62763158 12.779878,6.63368421 C12.8036585,6.63368421 12.8262195,6.63368421 12.85,6.63368421 C12.8871951,6.63368421 12.9231707,6.63368421 12.9597561,6.62763158 C12.9756098,6.62763158 12.9920732,6.62763158 13.0079268,6.62763158 C13.0176829,6.62763158 13.0262195,6.62157895 13.0353659,6.62157895 C13.070122,6.61552632 13.102439,6.60342105 13.1353659,6.59131579 C13.1603659,6.58526316 13.1859756,6.57921053 13.2103659,6.56710526 C13.2396341,6.555 13.2670732,6.53684211 13.295122,6.52473684 C13.3195122,6.51263158 13.3439024,6.50052632 13.3664634,6.48236842 C13.3920732,6.46421053 13.4152439,6.44605263 13.4390244,6.42789474 C13.4603659,6.40973684 13.4817073,6.39157895 13.5018293,6.37342105 C13.5237805,6.34921053 13.5426829,6.325 13.5628049,6.30078947 C13.579878,6.28263158 13.597561,6.25842105 13.6128049,6.24026316 C13.629878,6.21605263 13.6432927,6.18578947 13.6579268,6.16157895 C13.6719512,6.13131579 13.6859756,6.10710526 13.697561,6.08289474 C13.7079268,6.05868421 13.7158537,6.02842105 13.7243902,6.00421053 C13.7341463,5.97394737 13.7439024,5.93763158 13.7506098,5.90736842 C13.752439,5.89526316 13.7567073,5.88921053 13.7579268,5.87710526 C13.7829268,5.73184211 14.4030488,2.25763158 18.372561,2.25157895 C21.3365854,2.25157895 22.9756098,5.18105263 22.9756098,7.20868421 C22.9756098,9.39973684 21.9768293,10.6344737 19.0908537,13.8726316 Z M18.372561,0.435789474 C15.5091463,0.441842105 13.7853659,1.86421053 12.845122,3.34710526 C11.8829268,1.86421053 10.1182927,0.441842105 7.18780488,0.435789474 C3.30853659,0.435789474 0.604878049,4.00684211 0.604878049,7.20868421 C0.604878049,10.2047368 2.1902439,11.9418421 5.06890244,15.0831579 C7.77926829,18.0489474 12.1512195,22.5823684 12.195122,22.6307895 C12.2036585,22.6368421 12.2134146,22.6428947 12.2219512,22.6489474 C12.2262195,22.655 12.227439,22.6610526 12.2323171,22.6671053 C12.2396341,22.6731579 12.2493902,22.6731579 12.2573171,22.6792105 C12.3371951,22.7518421 12.4243902,22.8063158 12.5189024,22.8426316 C12.527439,22.8486842 12.5371951,22.8486842 12.5457317,22.8486842 C12.6457317,22.885 12.75,22.9092105 12.8554878,22.9092105 L12.8560976,22.9092105 C12.9640244,22.9092105 13.0707317,22.885 13.172561,22.8486842 C13.1810976,22.8486842 13.1896341,22.8426316 13.1981707,22.8426316 C13.2945122,22.8002632 13.3841463,22.7457895 13.4652439,22.6731579 C13.472561,22.6671053 13.4817073,22.6610526 13.4884146,22.655 C13.4926829,22.655 13.4939024,22.6489474 13.4981707,22.6428947 C13.5060976,22.6368421 13.5164634,22.6307895 13.525,22.6186842 C13.5670732,22.5763158 17.8237805,18.0428947 20.4615854,15.0771053 C23.2621951,11.9297368 24.804878,10.1986842 24.804878,7.20868421 C24.804878,4.00684211 22.1634146,0.435789474 18.372561,0.435789474 L18.372561,0.435789474 Z"></path>
                </g>
            </g>
        </g>
    </g>
</svg>

<svg width="25" height="23" viewBox="0 0 25 23" xmlns="http://www.w3.org/2000/svg"><title>Favourite</title><path d="M19.09 13.873c-2.003 2.251-4.945 5.417-6.243 6.803-1.33-1.386-4.361-4.552-6.424-6.81-2.964-3.238-3.989-4.472-3.989-6.657 0-2.028 1.693-4.957 4.753-4.957 4.054.006 4.738 3.474 4.767 3.637l.008.024c.007.03.017.06.026.091.009.03.017.055.028.085.012.024.027.048.041.079.014.024.027.048.043.072.019.024.04.049.062.079.015.018.03.036.046.048.028.03.058.055.09.08.014.011.026.023.041.03.035.024.072.042.111.066l.043.018c.036.018.075.03.115.042.02.006.039.006.058.013.014.006.027.012.041.012.025.006.048 0 .073.006h.07c.037 0 .073 0 .11-.006h.048c.01 0 .018-.006.027-.006.035-.006.067-.019.1-.03.025-.007.051-.013.075-.025.03-.012.057-.03.085-.042a.375.375 0 0 0 .071-.043l.073-.054c.021-.018.043-.036.063-.055.022-.024.04-.048.06-.072.018-.018.036-.043.05-.06.018-.025.031-.055.046-.08.014-.03.028-.054.04-.078.01-.024.018-.055.026-.079.01-.03.02-.066.027-.097.001-.012.006-.018.007-.03.025-.145.645-3.62 4.615-3.625 2.964 0 4.603 2.93 4.603 4.957 0 2.19-1 3.425-3.885 6.664zM18.374.436c-2.864.006-4.588 1.428-5.528 2.911C11.883 1.864 10.118.442 7.188.436 3.308.436.605 4.006.605 7.209c0 2.996 1.585 4.733 4.464 7.874 2.71 2.966 7.082 7.5 7.126 7.548l.027.018c.004.006.005.012.01.018.008.006.017.006.025.012a.83.83 0 0 0 .262.164c.008.006.018.006.027.006.1.036.204.06.31.06a.947.947 0 0 0 .317-.06c.008 0 .017-.006.025-.006a.995.995 0 0 0 .267-.17c.008-.006.017-.012.023-.018.005 0 .006-.006.01-.012.008-.006.018-.012.027-.024.042-.043 4.299-4.576 6.937-7.542 2.8-3.147 4.343-4.878 4.343-7.868 0-3.202-2.642-6.773-6.432-6.773z" fill="#B9B9C0" fill-rule="evenodd"/></svg>
